X:204
T: IM WINDSGERAEUSCH IN STILLER NACHT
N: B0242
O: Europa, Mitteleuropa, Deutschland
R: Tageszeiten - Lied, Nacht
M: 3/4
L: 1/16
K: Eb
B,2 | E3EE6B,2 | F3FF6
F2 | G2E2C4D4 | E8z2
G2 | G3FF6F2 | G3FF6
F2 | G2E2C4F4 | B,8z2
B2 | (3B2A2F2F6B2 | (3c2B2G2G4z2 |
e2 | e6dccBB=A | B8
B4 | BAGFF6B2 | cBAGG6
e2 | e6dccBB=A | B8
B4 | c6c2c2D2 | F2E2E4z2
B2 | c6c2c2D2 | F2E2E4z4 |
e3dd4z4 | f3ee4z2
e2 | e6dcBAGF | E8F2E2 | E8z2

@@@ Tune index: 2007
